X:1
T:Title
%%score 1 ( 2 3 ) ( 4 5 6 )
L:1/8
Q:1/4=115
M:2/2
K:D
V:1 treble nm="Drawbar Organ, Soprano"
V:2 treble nm="Grand Piano, Staff-1"
V:3 treble 
V:4 bass nm="Choir Pad, Carol, Christian Children"
V:5 bass 
V:6 bass 
V:1
 z8 | z8 | z8 | d3 d c2 B2 | A4 F4 | A2 ed c2 B2 | A8 | d3 d c2 B2 | A4 F4 | A2 F2 F2 E2 | D8 | %11
 F3 F F2 F2 | A4 A4 | ^A2 A2 B2 d2 | c8 | d3 d c2 B2 | A4 F4 | A2 F2 F2 E2 | D8 | z8 | z8 | z8 | %22
 d3 d c2 B2 | A4 F4 | A2 ed c2 B2 | A8 | d3 d c2 B2 | A4 F4 | A2 F2 F2 E2 | D8 | F3 F F2 F2 | %31
 A4 A4 | ^A2 A2 B2 d2 | c8 | d3 d c2 B2 | A4 F4 | A2 F2 F2 E2 | D8 | z8 | z8 | z8 | d3 d c2 B2 | %42
 A4 F4 | A2 ed c2 B2 | A8 | d3 d c2 B2 | A4 F4 | A2 F2 F2 E2 | D8 | F3 F F2 F2 | A4 A4 | %51
 ^A2 A2 B2 d2 | c8 | d3 d c2 B2 | A4 F4 | A2 F2 F2 E2 | D8 | z8 | z8 | z8 |] %60
V:2
 A8 | a8 | [DA]8 | z4 .c4 | [FA]4 F4 | z2 .e2 z4 | [CA]8 | z4 .c4 | [FA]4 F4 | .A4 .F4 | D8 | %11
w: By~Alfred~Moffat|||||||||||
 [^A,CF]3 [A,CF] [B,DF]2 [B,DF]2 | [A,GA]4 z4 | [CF^A]2 [CFA]2 [DFB]2 [FBd]2 | .[F^A]4 z4 | %15
w: ||||
 [Fd]3 [Fd] c2 B2 | [DF]4 F4 | .A4 .F4 | D8 | A8 | f4 z4 | [DA]8 | z4 .c4 | [FA]4 F4 | z2 .e2 z4 | %25
w: ||||||||||
 [CA]8 | z4 .c4 | [FA]4 F4 | .A4 .F4 | D8 | [^A,CF]3 [A,CF] [B,DF]2 [B,DF]2 | [A,GA]4 z4 | %32
w: |||||||
 [CF^A]2 [CFA]2 [DFB]2 [FBd]2 | .[F^A]4 z4 | [Fd]3 [Fd] c2 B2 | [DF]4 F4 | .A4 .F4 | D8 | A8 | %39
w: |||||||
 f4 z4 | [DA]8 | z4 .c4 | [FA]4 F4 | z2 .e2 z4 | [CA]8 | z4 .c4 | [FA]4 F4 | .A4 .F4 | D8 | %49
w: ||||||||||
 [^A,CF]3 [A,CF] [B,DF]2 [B,DF]2 | [A,GA]4 z4 | [CF^A]2 [CFA]2 [DFB]2 [FBd]2 | .[F^A]4 z4 | %53
w: ||||
 [Fd]3 [Fd] c2 B2 | [DF]4 F4 | .A4 .F4 | D8 | A8 | f4 z4 | [DA]8 |] %60
w: |||||||
V:3
 z2 [CE][CE] [DF]4 | z2 [ce][ce] [df]2 [CA][CA] | x8 | [Fd]3 [Fd] G2- [GB]2 | x8 | %5
 [EA]2 [FB]-[FBd] [E^Gc]2 [DB]2 | x8 | [Fd]3 [Fd] G2- [GB]2 | x8 | C2- [CF]2 C2- [CE]2 | x8 | x8 | %12
 =C2 DE [A,FA]4 | x8 | c2- [C^Gc-][CGc-] [F^Ac]4 | z4 G4 | x8 | C2- [CF]2 C2- [CE]2 | x8 | %19
 z2 [CE][CE] [DF]4 | z2 [ce][ce] [dfa]2 [CA][CA] | x8 | [Fd]3 [Fd] G2- [GB]2 | x8 | %24
 [EA]2 [FB]-[FBd] [E^Gc]2 [DB]2 | x8 | [Fd]3 [Fd] G2- [GB]2 | x8 | C2- [CF]2 C2- [CE]2 | x8 | x8 | %31
 =C2 DE [A,FA]4 | x8 | c2- [C^Gc-][CGc-] [F^Ac]4 | z4 G4 | x8 | C2- [CF]2 C2- [CE]2 | x8 | %38
 z2 [CE][CE] [DF]4 | z2 [ce][ce] [dfa]2 [CA][CA] | x8 | [Fd]3 [Fd] G2- [GB]2 | x8 | %43
 [EA]2 [FB]-[FBd] [E^Gc]2 [DB]2 | x8 | [Fd]3 [Fd] G2- [GB]2 | x8 | C2- [CF]2 C2- [CE]2 | x8 | x8 | %50
 =C2 DE [A,FA]4 | x8 | c2- [C^Gc-][CGc-] [F^Ac]4 | z4 G4 | x8 | C2- [CF]2 C2- [CE]2 | x8 | %57
 z2 [CE][CE] [DF]4 | z2 [ce][ce] [dfa]2 [CA][CA] | x8 |] %60
V:4
 A,8 | A4 z4[K:bass] | [D,F,]8 | z4 .B,4 | D4 z4 | C,2 D,2 E,2 E,,2 | A,,2 E,E, A,4 | z4 .B,4 | %8
 D4 z4 | A,8 | [D,F,]8 | [F,,F,]3 [F,,F,] [B,,F,]2 [B,,F,]2 | %12
 [A,,,A,,]2 [B,,,B,,][C,,C,] [D,,D,]4 | [F,,,F,,]2 [F,,F,][E,,E,] [D,,D,][C,,C,] [B,,,B,,]2 | %14
 [F,,F,]2 [C,^G,][C,G,] [F,^A,]4 | z4 .B,4 | D4 z4 | A,8 | [D,F,]8 | A,8 | A8[K:bass] | [D,F,]8 | %22
 z4 .B,4 | D4 z4 | C,2 D,2 E,2 E,,2 | A,,2 E,E, A,4 | z4 .B,4 | D4 z4 | A,8 | [D,F,]8 | %30
 [F,,F,]3 [F,,F,] [B,,F,]2 [B,,F,]2 | [A,,,A,,]2 [B,,,B,,][C,,C,] [D,,D,]4 | %32
 [F,,,F,,]2 [F,,F,][E,,E,] [D,,D,][C,,C,] [B,,,B,,]2 | [F,,F,]2 [C,^G,][C,G,] [F,^A,]4 | z4 .B,4 | %35
 D4 z4 | A,8 | [D,F,]8 | A,8 | A8[K:bass] | [D,F,]8 | z4 .B,4 | D4 z4 | C,2 D,2 E,2 E,,2 | %44
 A,,2 E,E, A,4 | z4 .B,4 | D4 z4 | A,8 | [D,F,]8 | [F,,F,]3 [F,,F,] [B,,F,]2 [B,,F,]2 | %50
 [A,,,A,,]2 [B,,,B,,][C,,C,] [D,,D,]4 | [F,,,F,,]2 [F,,F,][E,,E,] [D,,D,][C,,C,] [B,,,B,,]2 | %52
 [F,,F,]2 [C,^G,][C,G,] [F,^A,]4 | z4 .B,4 | D4 z4 | A,8 | [D,F,]8 | A,8 | A8[K:bass] | [D,F,]8 |] %60
V:5
 z2 A,,A,, D,4 | z2 A,A, [DA]2[K:bass] [A,,E,][A,,E,] | x8 | [D,A,]3 [D,A,] D,2- [D,C]2 | %4
 D,2 D,D, [D,A,]4 | x8 | x8 | [D,A,]3 [D,A,] D,2- [D,C]2 | D,2 D,D, [D,A,]4 | A,,2 A,,A,, z2 G,2 | %10
 x8 | x8 | x8 | x8 | x8 | [D,A,]3 [D,A,] D,2- [D,C]2 | D,2 D,D, [D,A,]4 | A,,2 A,,A,, z2 G,2 | x8 | %19
 z2 A,,A,, D,4 | z2 A,[K:bass]A, D2 [A,,E,][A,,E,] | x8 | [D,A,]3 [D,A,] D,2- [D,C]2 | %23
 D,2 D,D, [D,A,]4 | x8 | x8 | [D,A,]3 [D,A,] D,2- [D,C]2 | D,2 D,D, [D,A,]4 | A,,2 A,,A,, z2 G,2 | %29
 x8 | x8 | x8 | x8 | x8 | [D,A,]3 [D,A,] D,2- [D,C]2 | D,2 D,D, [D,A,]4 | A,,2 A,,A,, z2 G,2 | x8 | %38
 z2 A,,A,, D,4 | z2 A,[K:bass]A, D2 [A,,E,][A,,E,] | x8 | [D,A,]3 [D,A,] D,2- [D,C]2 | %42
 D,2 D,D, [D,A,]4 | x8 | x8 | [D,A,]3 [D,A,] D,2- [D,C]2 | D,2 D,D, [D,A,]4 | A,,2 A,,A,, z2 G,2 | %48
 x8 | x8 | x8 | x8 | x8 | [D,A,]3 [D,A,] D,2- [D,C]2 | D,2 D,D, [D,A,]4 | A,,2 A,,A,, z2 G,2 | x8 | %57
 z2 A,,A,, D,4 | z2 A,[K:bass]A, D2 [A,,E,][A,,E,] | x8 |] %60
V:6
 x8 | x6[K:bass] x2 | x8 | x8 | x8 | x8 | x8 | x8 | x8 | z4 A,,4 | x8 | x8 | x8 | x8 | x8 | x8 | %16
 x8 | z4 A,,4 | x8 | x8 | x3[K:bass] x5 | x8 | x8 | x8 | x8 | x8 | x8 | x8 | z4 A,,4 | x8 | x8 | %31
 x8 | x8 | x8 | x8 | x8 | z4 A,,4 | x8 | x8 | x3[K:bass] x5 | x8 | x8 | x8 | x8 | x8 | x8 | x8 | %47
 z4 A,,4 | x8 | x8 | x8 | x8 | x8 | x8 | x8 | z4 A,,4 | x8 | x8 | x3[K:bass] x5 | x8 |] %60

